Newaita-dark/apps/256/miro.svg

<?xml version="1.0" encoding="UTF-8"?>
<svg xmlns="http://www.w3.org/2000/svg" xmlns:xlink="http://www.w3.org/1999/xlink" width="256pt" height="256pt" viewBox="0 0 256 256" version="1.1">
<defs>
<linearGradient id="linear0" gradientUnits="userSpaceOnUse" x1="254" y1="233.5" x2="254" y2="254.666672" gradientTransform="matrix(0.500048,0,0,0.500048,10.584324,107.510281)">
<stop offset="0" style="stop-color:rgb(0%,0%,0%);stop-opacity:0.27451;"/>
<stop offset="1" style="stop-color:rgb(0%,0%,0%);stop-opacity:0;"/>
</linearGradient>
<radialGradient id="radial0" gradientUnits="userSpaceOnUse" cx="450.908936" cy="189.579361" fx="450.908936" fy="189.579361" r="21.166656" gradientTransform="matrix(0.00000139336,-0.62506,-1.125108,-0.000000812309,337.662613,508.762661)">
<stop offset="0" style="stop-color:rgb(0%,0%,0%);stop-opacity:0.313725;"/>
<stop offset="0.222222" style="stop-color:rgb(0%,0%,0%);stop-opacity:0.27451;"/>
<stop offset="1" style="stop-color:rgb(0%,0%,0%);stop-opacity:0;"/>
</radialGradient>
<radialGradient id="radial1" gradientUnits="userSpaceOnUse" cx="450.908936" cy="189.579361" fx="450.908936" fy="189.579361" r="21.166656" gradientTransform="matrix(-0.00000139336,0.62506,1.125108,0.000000812309,-91.576615,-60.219831)">
<stop offset="0" style="stop-color:rgb(0%,0%,0%);stop-opacity:0.313725;"/>
<stop offset="0.222222" style="stop-color:rgb(0%,0%,0%);stop-opacity:0.27451;"/>
<stop offset="1" style="stop-color:rgb(0%,0%,0%);stop-opacity:0;"/>
</radialGradient>
<radialGradient id="radial2" gradientUnits="userSpaceOnUse" cx="450.908936" cy="189.579361" fx="450.908936" fy="189.579361" r="21.166656" gradientTransform="matrix(-0.00000139336,-0.62506,1.125108,-0.000000812309,-91.576615,508.762661)">
<stop offset="0" style="stop-color:rgb(0%,0%,0%);stop-opacity:0.313725;"/>
<stop offset="0.222222" style="stop-color:rgb(0%,0%,0%);stop-opacity:0.27451;"/>
<stop offset="1" style="stop-color:rgb(0%,0%,0%);stop-opacity:0;"/>
</radialGradient>
<radialGradient id="radial3" gradientUnits="userSpaceOnUse" cx="450.908936" cy="189.579361" fx="450.908936" fy="189.579361" r="21.166656" gradientTransform="matrix(0.00000139336,0.62506,-1.125108,0.000000812309,337.662598,-60.219835)">
<stop offset="0" style="stop-color:rgb(0%,0%,0%);stop-opacity:0.313725;"/>
<stop offset="0.222222" style="stop-color:rgb(0%,0%,0%);stop-opacity:0.27451;"/>
<stop offset="1" style="stop-color:rgb(0%,0%,0%);stop-opacity:0;"/>
</radialGradient>
<linearGradient id="linear1" gradientUnits="userSpaceOnUse" x1="254" y1="233.5" x2="254" y2="-168.666687" gradientTransform="matrix(0.500048,0,0,0.500048,0,107.510266)">
<stop offset="0" style="stop-color:rgb(67.058824%,27.843137%,73.72549%);stop-opacity:1;"/>
<stop offset="1" style="stop-color:rgb(93.72549%,32.54902%,31.372549%);stop-opacity:1;"/>
</linearGradient>
<linearGradient id="linear2" gradientUnits="userSpaceOnUse" x1="960" y1="1255.118164" x2="960" y2="695.118103" >
<stop offset="0" style="stop-color:rgb(87.843137%,87.843137%,87.843137%);stop-opacity:1;"/>
<stop offset="1" style="stop-color:rgb(74.117647%,74.117647%,74.117647%);stop-opacity:1;"/>
</linearGradient>
</defs>
<g id="surface1">
<path style=" stroke:none;fill-rule:nonzero;fill:url(#linear0);" d="M 119.074219 223.488281 L 127.011719 223.488281 L 127.011719 235.246094 L 119.074219 235.246094 Z M 119.074219 223.488281 "/>
<path style=" stroke:none;fill-rule:nonzero;fill:url(#radial0);" d="M 127.011719 224.269531 L 148.179688 224.269531 L 148.179688 213.6875 L 127.011719 213.6875 Z M 127.011719 224.269531 "/>
<path style=" stroke:none;fill-rule:nonzero;fill:url(#radial1);" d="M 119.074219 224.269531 L 97.90625 224.269531 L 97.90625 234.855469 L 119.074219 234.855469 Z M 119.074219 224.269531 "/>
<path style=" stroke:none;fill-rule:nonzero;fill:url(#radial2);" d="M 119.074219 224.269531 L 97.90625 224.269531 L 97.90625 213.6875 L 119.074219 213.6875 Z M 119.074219 224.269531 "/>
<path style=" stroke:none;fill-rule:nonzero;fill:url(#radial3);" d="M 127.011719 224.269531 L 148.179688 224.269531 L 148.179688 234.855469 L 127.011719 234.855469 Z M 127.011719 224.269531 "/>
<path style=" stroke:none;fill-rule:nonzero;fill:url(#linear1);" d="M 21.167969 144.890625 C 21.167969 94.613281 121.71875 -35.046875 232.855469 54.921875 C 254.023438 250.730469 63.507812 271.902344 21.167969 144.890625 Z M 21.167969 144.890625 "/>
<path style="fill-rule:nonzero;fill:url(#linear2);stroke-width:11.338583;stroke-linecap:round;stroke-linejoin:round;stroke:rgb(12.941177%,12.941177%,12.941177%);stroke-opacity:1;stroke-miterlimit:4;" d="M 640.007814 695.130505 C 617.834733 695.130505 600.001789 712.963449 600.001789 735.107005 L 600.001789 1215.120246 C 600.001789 1237.263802 617.834733 1255.12627 640.007814 1255.12627 L 719.990337 1255.12627 C 742.163418 1255.12627 759.996362 1237.263802 759.996362 1215.120246 L 759.996362 855.125078 L 880.014434 855.125078 L 880.014434 1215.120246 C 880.014434 1237.263802 897.847378 1255.12627 919.990934 1255.12627 L 1000.002982 1255.12627 C 1022.146538 1255.12627 1040.009006 1237.263802 1040.009006 1215.120246 L 1040.009006 855.125078 L 1159.997554 855.125078 L 1159.997554 1215.120246 C 1159.997554 1237.293327 1177.830498 1255.12627 1200.003579 1255.12627 L 1279.986102 1255.12627 C 1302.159183 1255.12627 1319.992127 1237.293327 1319.992127 1215.120246 L 1319.992127 775.113029 C 1319.992127 730.796393 1284.326239 695.130505 1240.009603 695.130505 Z M 640.007814 695.130505 " transform="matrix(0.132304,0,0,0.132304,0,0)"/>
<path style=" stroke:none;fill-rule:nonzero;fill:rgb(100%,100%,100%);fill-opacity:0.392157;" d="M 154.070312 23.949219 C 78.320312 23.964844 21.167969 106.984375 21.167969 144.890625 C 21.203125 144.996094 21.242188 145.101562 21.277344 145.207031 C 24.972656 93.042969 123.820312 -30.09375 232.855469 58.175781 C 233.902344 67.84375 234.429688 77.085938 234.484375 85.90625 C 234.550781 76.109375 234.03125 65.785156 232.855469 54.921875 C 205.503906 32.78125 178.796875 23.941406 154.070312 23.949219 Z M 154.070312 23.949219 "/>
<path style=" stroke:none;fill-rule:nonzero;fill:rgb(0%,0%,0%);fill-opacity:0.235294;" d="M 234.480469 82.269531 C 233.125 248.488281 61.5625 260.804688 21.320312 141.390625 C 21.21875 142.59375 21.167969 143.761719 21.167969 144.890625 C 61.445312 265.71875 235.828125 252.441406 234.480469 82.269531 Z M 234.480469 82.269531 "/>
<path style=" stroke:none;fill-rule:nonzero;fill:rgb(12.941177%,12.941177%,12.941177%);fill-opacity:1;" d="M 152.886719 23.203125 C 127.648438 23.496094 104.515625 32.90625 84.90625 46.699219 C 65.292969 60.496094 49.195312 78.671875 37.980469 96.570312 C 26.765625 114.472656 20.417969 132.070312 20.417969 144.890625 L 20.417969 145.011719 L 20.457031 145.125 C 41.738281 208.964844 100.371094 235.683594 151.027344 221.6875 C 201.683594 207.691406 244.210938 152.988281 233.601562 54.839844 L 233.566406 54.535156 L 233.328125 54.339844 C 205.433594 31.757812 178.121094 22.914062 152.886719 23.203125 Z M 152.902344 24.703125 C 177.703125 24.417969 204.554688 33.066406 232.140625 55.320312 C 242.570312 152.78125 200.46875 206.46875 150.625 220.242188 C 100.765625 234.019531 43.019531 207.859375 21.925781 144.78125 C 21.960938 132.464844 28.171875 115.058594 39.25 97.367188 C 50.363281 79.628906 66.347656 61.585938 85.769531 47.929688 C 105.1875 34.269531 128.027344 24.992188 152.902344 24.703125 Z M 152.902344 24.703125 "/>
</g>
</svg>

<svg xmlns="http://www.w3.org/2000/svg" width="256pt" height="256pt" viewBox="0 0 256 256"><defs><linearGradient id="a" gradientUnits="userSpaceOnUse" x1="254" y1="233.5" x2="254" y2="254.667" gradientTransform="matrix(.50005 0 0 .50005 10.584 107.51)"><stop offset="0" stop-opacity=".275"/><stop offset="1" stop-opacity="0"/></linearGradient><radialGradient id="b" gradientUnits="userSpaceOnUse" cx="450.909" cy="189.579" fx="450.909" fy="189.579" r="21.167" gradientTransform="matrix(0 -.62506 -1.1251 0 337.663 508.763)"><stop offset="0" stop-opacity=".314"/><stop offset=".222" stop-opacity=".275"/><stop offset="1" stop-opacity="0"/></radialGradient><radialGradient id="c" gradientUnits="userSpaceOnUse" cx="450.909" cy="189.579" fx="450.909" fy="189.579" r="21.167" gradientTransform="matrix(0 .62506 1.1251 0 -91.577 -60.22)"><stop offset="0" stop-opacity=".314"/><stop offset=".222" stop-opacity=".275"/><stop offset="1" stop-opacity="0"/></radialGradient><radialGradient id="d" gradientUnits="userSpaceOnUse" cx="450.909" cy="189.579" fx="450.909" fy="189.579" r="21.167" gradientTransform="matrix(0 -.62506 1.1251 0 -91.577 508.763)"><stop offset="0" stop-opacity=".314"/><stop offset=".222" stop-opacity=".275"/><stop offset="1" stop-opacity="0"/></radialGradient><radialGradient id="e" gradientUnits="userSpaceOnUse" cx="450.909" cy="189.579" fx="450.909" fy="189.579" r="21.167" gradientTransform="matrix(0 .62506 -1.1251 0 337.663 -60.22)"><stop offset="0" stop-opacity=".314"/><stop offset=".222" stop-opacity=".275"/><stop offset="1" stop-opacity="0"/></radialGradient><linearGradient id="f" gradientUnits="userSpaceOnUse" x1="254" y1="233.5" x2="254" y2="-168.667" gradientTransform="matrix(.50005 0 0 .50005 0 107.51)"><stop offset="0" stop-color="#ab47bc"/><stop offset="1" stop-color="#ef5350"/></linearGradient><linearGradient id="g" gradientUnits="userSpaceOnUse" x1="960" y1="1255.118" x2="960" y2="695.118"><stop offset="0" stop-color="#e0e0e0"/><stop offset="1" stop-color="#bdbdbd"/></linearGradient></defs><path d="M119.074 223.488h7.938v11.758h-7.938zm0 0" fill="url(#a)"/><path d="M127.012 224.27h21.168v-10.583h-21.168zm0 0" fill="url(#b)"/><path d="M119.074 224.27H97.906v10.585h21.168zm0 0" fill="url(#c)"/><path d="M119.074 224.27H97.906v-10.583h21.168zm0 0" fill="url(#d)"/><path d="M127.012 224.27h21.168v10.585h-21.168zm0 0" fill="url(#e)"/><path d="M21.168 144.89c0-50.277 100.55-179.937 211.687-89.968C254.023 250.73 63.508 271.902 21.168 144.89zm0 0" fill="url(#f)"/><path d="M640.008 695.13c-22.173 0-40.006 17.833-40.006 39.977v480.013c0 22.144 17.833 40.006 40.006 40.006h79.982c22.173 0 40.006-17.862 40.006-40.006V855.125h120.018v359.995c0 22.144 17.833 40.006 39.977 40.006h80.012c22.144 0 40.006-17.862 40.006-40.006V855.125h119.989v359.995a39.906 39.906 0 0 0 40.006 40.006h79.982a39.906 39.906 0 0 0 40.006-40.006V775.113c0-44.317-35.666-79.982-79.982-79.982zm0 0" transform="scale(.1323)" fill="url(#g)" stroke-width="11.339" stroke-linecap="round" stroke-linejoin="round" stroke="#212121"/><path d="M154.07 23.95c-75.75.015-132.902 83.034-132.902 120.94.035.106.074.212.11.317 3.695-52.164 102.542-175.3 211.577-87.031 1.047 9.668 1.575 18.91 1.63 27.73.066-9.797-.454-20.12-1.63-30.984-27.351-22.14-54.058-30.98-78.785-30.973zm0 0" fill="#fff" fill-opacity=".392"/><path d="M234.48 82.27c-1.355 166.218-172.917 178.535-213.16 59.12a41.65 41.65 0 0 0-.152 3.5C61.445 265.72 235.828 252.442 234.48 82.27zm0 0" fill-opacity=".235"/><path d="M152.887 23.203c-25.239.293-48.371 9.703-67.98 23.496C65.292 60.496 49.194 78.672 37.98 96.57c-11.214 17.903-17.562 35.5-17.562 48.32v.122l.039.113c21.281 63.84 79.914 90.559 130.57 76.563 50.657-13.997 93.184-68.7 82.575-166.848l-.036-.305-.238-.195c-27.894-22.582-55.207-31.426-80.441-31.137zm.015 1.5c24.801-.285 51.653 8.363 79.239 30.617 10.43 97.461-31.672 151.149-81.516 164.922-49.86 13.778-107.605-12.383-128.7-75.46.036-12.317 6.247-29.723 17.325-47.415C50.363 79.63 66.348 61.586 85.77 47.93c19.418-13.66 42.257-22.938 67.132-23.227zm0 0" fill="#212121"/></svg>
